symbols/web/cancel_presentation/materialsymbolsrounded/cancel_presentation_wght300grad200fill1_24px.svg

<svg xmlns="http://www.w3.org/2000/svg" height="24" width="24"><path d="M8.6 15.4q.325.325.75.325t.75-.325l1.9-1.9 1.925 1.925q.3.3.725.3t.75-.325q.325-.325.325-.75t-.325-.75L13.5 12l1.925-1.925q.3-.3.3-.725T15.4 8.6q-.325-.325-.75-.325t-.75.325L12 10.5l-1.925-1.925q-.3-.3-.725-.3T8.6 8.6q-.325.325-.325.75t.325.75l1.9 1.9-1.925 1.925q-.3.3-.3.725t.325.75Zm-4.3 4.7q-1.025 0-1.738-.712-.712-.713-.712-1.738V6.35q0-1.025.712-1.738Q3.275 3.9 4.3 3.9h15.4q1.025 0 1.738.712.712.713.712 1.738v11.3q0 1.025-.712 1.738-.713.712-1.738.712Z"/></svg>

<svg xmlns="http://www.w3.org/2000/svg" height="24" width="24"><path d="M8.6 15.4Q8.925 15.725 9.35 15.725Q9.775 15.725 10.1 15.4L12 13.5L13.925 15.425Q14.225 15.725 14.65 15.725Q15.075 15.725 15.4 15.4Q15.725 15.075 15.725 14.65Q15.725 14.225 15.4 13.9L13.5 12L15.425 10.075Q15.725 9.775 15.725 9.35Q15.725 8.925 15.4 8.6Q15.075 8.275 14.65 8.275Q14.225 8.275 13.9 8.6L12 10.5L10.075 8.575Q9.775 8.275 9.35 8.275Q8.925 8.275 8.6 8.6Q8.275 8.925 8.275 9.35Q8.275 9.775 8.6 10.1L10.5 12L8.575 13.925Q8.275 14.225 8.275 14.65Q8.275 15.075 8.6 15.4ZM4.3 20.1Q3.275 20.1 2.562 19.388Q1.85 18.675 1.85 17.65V6.35Q1.85 5.325 2.562 4.612Q3.275 3.9 4.3 3.9H19.7Q20.725 3.9 21.438 4.612Q22.15 5.325 22.15 6.35V17.65Q22.15 18.675 21.438 19.388Q20.725 20.1 19.7 20.1Z"/></svg>
